X:20
T:Paddy Teahan's Delight
B:Terry "Cuz" Teahan "Sliabh Luachra on Parade" 1980
Z:Patrick Cavanagh
M:6/8
L:1/8
R:Jig
K:D
| ecA ABd | eac B2A | cBc dcd | EAA eAA | 
BcB BAF | gea ged | cde fed | cAA A3 :| 
| dFF FEF | cBA BAF | eAA cBA | DFA dfa | 
gec dcB | bag aef | gea ged | eAA A3 :|| 

